icon-svg/treadmill.svg

<svg xmlns="http://www.w3.org/2000/svg" fill="#44739e" viewBox="0 0 24 24"><path d="m21.99 15.808-.064-6.518a1.015 1.015 0 0 0-.461-.83 1.227 1.227 0 0 0-1.088-.146l-5.983 1.562a1.7 1.7 0 0 1 .042-.431c.029-.1.1-.276.172-.466s.14-.362.185-.495a4.8 4.8 0 0 0 .868.721.487.487 0 0 0 .472-.068 5.87 5.87 0 0 0 .707-.979c.149-.308.39-.771.39-.771a1.45 1.45 0 0 0 .092-.192.343.343 0 0 0 .152-.137 1.3 1.3 0 0 0 .065-.149l.048-.137a1.14 1.14 0 0 0 .035-.274.325.325 0 0 0-.088-.292.24.24 0 0 0-.1-.114.35.35 0 0 0-.052-.025.26.26 0 0 0-.055-.078.32.32 0 0 0-.16-.08A.27.27 0 0 0 17 5.8a.277.277 0 0 0-.268.088l-.017-.016a.283.283 0 0 0-.308-.052l-.123.065v.1a.246.246 0 0 0 .032.108.58.58 0 0 1 .062.185 1.05 1.05 0 0 0 .047.38 1.4 1.4 0 0 0 .068.151 1.2 1.2 0 0 1 .053.114v.011a.656.656 0 0 1-.077.29 1.56 1.56 0 0 1-.658.663 2.43 2.43 0 0 1-.663-.816 3.5 3.5 0 0 0-.325-.625.36.36 0 0 0-.086-.143.127.127 0 0 1 .081-.1.68.68 0 0 1 .235-.03h.093a.526.526 0 0 0 .337-.05.3.3 0 0 0 .121-.238.37.37 0 0 0 .081-.181.276.276 0 0 0 .025-.163.27.27 0 0 0 .084-.035l.044-.04c.083-.113.018-.237-.038-.347-.018-.036-.039-.075-.059-.123a.94.94 0 0 1-.049-.274c0-.043-.008-.086-.012-.124a1.05 1.05 0 0 0-.073-.285.367.367 0 0 0 .022-.2c-.04-.236-.286-.456-.747-.673-.267-.133-.559-.247-.709-.088a.23.23 0 0 0-.062.134.72.72 0 0 0-.454.085.271.271 0 0 0-.105.2.26.26 0 0 0 .006.056.677.677 0 0 0-.236.314 1.073 1.073 0 0 0 .08.814.6.6 0 0 1 .025.065.47.47 0 0 1 .012.1l-.188.173h.19v.348l.163-.25v.064a.84.84 0 0 1-.011.225.64.64 0 0 0-.234.083.76.76 0 0 0-.188.162l-.51.237c-.248.084-1.492.506-1.606.559a.81.81 0 0 0-.315.239c-.011.019-.09.2-.177.4-.076.173-.159.36-.2.459a9.8 9.8 0 0 0-.294 1.033s-.01.112-.022.175c-.036.023-.1.06-.15.084a1.7 1.7 0 0 0-.179.1c-.024.013-.06.03-.1.049-.187.089-.3.149-.362.258a.26.26 0 0 0-.008.149.26.26 0 0 0 0 .135.25.25 0 0 0 .038.084.25.25 0 0 0 .03.139c.007.011.013.021.02.03v.018l.005.041a.242.242 0 0 0 .245.184.62.62 0 0 0 .155-.035c.071-.02.16-.045.217-.055a.4.4 0 0 0 .059-.018.27.27 0 0 0 .067.09.23.23 0 0 0 .181.051c.209-.032.216-.237.221-.338.008-.032.03-.091.049-.143l.072-.022h-.063l.021-.055A1.52 1.52 0 0 0 10.8 9.4c0-.015.015-.038.027-.066a1.4 1.4 0 0 0 .081-.218 10 10 0 0 1 .493-1c.079-.122.162-.256.231-.365.047-.075.086-.139.105-.17.113-.025.414-.081.693-.131-.011.039-.023.078-.036.113a1.81 1.81 0 0 0-.083.705 2.47 2.47 0 0 1-.029.732 2.3 2.3 0 0 1-.123.235 1.24 1.24 0 0 0-.238.6.44.44 0 0 0 .059.173 1.553 1.553 0 0 0-.414.737 4.3 4.3 0 0 0-.029.582 1.24 1.24 0 0 1-.019.3c-.02.057-.169.315-.289.523a3.14 3.14 0 0 0-.394.773.164.164 0 0 0 .05.119 8.7 8.7 0 0 1-.431.888c-.136.126-.777.682-.843.729l-.032.03c-.056.069-.821 1.221-1.017 1.516l-.006-.005-.329.483a.37.37 0 0 0-.169.049c-.076.052-.607.473-.616.48a.208.208 0 0 0-.067.151.193.193 0 0 0 .061.142c.046.053.287.394.418.6-1.977.311-3.439.538-3.761.581l-.209-.035L2 20.721h2.953l.178-.226a.848.848 0 0 0 .681-.464l13.522-1.781a1.17 1.17 0 0 0 .2.171l-.384 1.449-.306.851H22v-4.916zm-3.869-5.118 2.168-.555.066 5.989c-3.055.488-7.707 1.226-11.265 1.786 0-.118 0-.291.01-.357a.31.31 0 0 0 .026-.207l.335-.5c1.388-1.373 1.708-1.7 1.788-1.788.012-.007.029-.014.048-.023a1.15 1.15 0 0 0 .287-.181.91.91 0 0 0 .218-.31l.017-.037c.035-.055.362-.461.669-.836h.057l.044-.037a1.93 1.93 0 0 0 .366-.431 8.1 8.1 0 0 0 .413-.795l1.941.275c-.046.039-.094.084-.143.133a3.03 3.03 0 0 0-.405.605 2.4 2.4 0 0 1-.159.262c-.112.119-.371.374-.371.375l-.059.059-.448.365a.18.18 0 0 0-.121 0c-.031.009-.087.026-.572.438l-.041.02-.029.06a.31.31 0 0 0-.005.23 1.95 1.95 0 0 0 .42.523c.073.076.136.143.166.178s.05.072.075.11a1.72 1.72 0 0 0 .325.385 9.2 9.2 0 0 0 .786.524.24.24 0 0 0 .089.016.31.31 0 0 0 .262-.139.244.244 0 0 0-.053-.329 1.126 1.126 0 0 1-.288-.428 2.64 2.64 0 0 1 .011-.478 1.16 1.16 0 0 0 0-.33c-.006-.031-.015-.074-.021-.074l.018-.035a2.4 2.4 0 0 1 .246-.273l.082-.081.036-.027c.072-.058 1.785-1.4 1.993-1.6l.062-.057c.214-.193.478-.434.456-.732 0-.459-.768-.983-.989-1.091l-.119-.055a6.24 6.24 0 0 0-1.04-.4l-.385-.118c-.216-.066-.45-.137-.588-.191Z"/></svg>

<?xml version="1.0" encoding="UTF-8"?>
<svg width="24px" fill="#44739e" height="24px" viewBox="0 0 24 24" version="1.1" xmlns="http://www.w3.org/2000/svg" xmlns:xlink="http://www.w3.org/1999/xlink">
            <path d="M 21.99,15.808 21.926,9.29 A 1.015,1.015 0 0 0 21.465,8.46 1.227,1.227 0 0 0 20.377,8.314 l -5.983,1.562 a 1.691,1.691 0 0 1 0.042,-0.431 c 0.029,-0.1 0.1,-0.276 0.172,-0.466 0.072,-0.19 0.14,-0.362 0.185,-0.495 A 4.807,4.807 0 0 0 15.661,9.205 0.487,0.487 0 0 0 16.133,9.137 5.868,5.868 0 0 0 16.84,8.158 C 16.989,7.85 17.23,7.387 17.23,7.387 A 1.451,1.451 0 0 0 17.322,7.195 0.343,0.343 0 0 0 17.474,7.058 1.339,1.339 0 0 0 17.539,6.909 L 17.587,6.772 A 1.136,1.136 0 0 0 17.622,6.498 0.325,0.325 0 0 0 17.534,6.206 0.24,0.24 0 0 0 17.434,6.092 0.35,0.35 0 0 0 17.382,6.067 0.258,0.258 0 0 0 17.327,5.989 0.318,0.318 0 0 0 17.167,5.909 0.27,0.27 0 0 0 17,5.8 0.277,0.277 0 0 0 16.732,5.888 L 16.715,5.872 A 0.283,0.283 0 0 0 16.407,5.82 l -0.123,0.065 v 0.1 a 0.246,0.246 0 0 0 0.032,0.108 0.577,0.577 0 0 1 0.062,0.185 1.054,1.054 0 0 0 0.047,0.38 1.418,1.418 0 0 0 0.068,0.151 1.221,1.221 0 0 1 0.053,0.114 v 0.011 a 0.656,0.656 0 0 1 -0.077,0.29 1.558,1.558 0 0 1 -0.658,0.663 2.431,2.431 0 0 1 -0.663,-0.816 3.482,3.482 0 0 0 -0.325,-0.625 0.358,0.358 0 0 0 -0.086,-0.143 0.127,0.127 0 0 1 0.081,-0.1 0.679,0.679 0 0 1 0.235,-0.03 h 0.041 c 0.015,0 0.033,0 0.052,0 a 0.526,0.526 0 0 0 0.337,-0.05 0.3,0.3 0 0 0 0.121,-0.238 0.37,0.37 0 0 0 0.081,-0.181 0.276,0.276 0 0 0 0.025,-0.163 0.273,0.273 0 0 0 0.084,-0.035 l 0.044,-0.04 C 15.921,5.353 15.856,5.229 15.8,5.119 15.782,5.083 15.761,5.044 15.741,4.996 A 0.941,0.941 0 0 1 15.692,4.722 c 0,-0.043 -0.008,-0.086 -0.012,-0.124 a 1.052,1.052 0 0 0 -0.073,-0.285 0.367,0.367 0 0 0 0.022,-0.2 C 15.589,3.877 15.343,3.657 14.882,3.44 14.615,3.307 14.323,3.193 14.173,3.352 a 0.231,0.231 0 0 0 -0.062,0.134 0.719,0.719 0 0 0 -0.454,0.085 0.271,0.271 0 0 0 -0.105,0.2 0.26,0.26 0 0 0 0.006,0.056 0.677,0.677 0 0 0 -0.236,0.314 1.073,1.073 0 0 0 0.08,0.814 0.587,0.587 0 0 1 0.025,0.065 0.472,0.472 0 0 1 0.012,0.1 l -0.188,0.173 h 0.19 v 0.348 l 0.163,-0.25 c 0,0.022 0,0.043 0,0.064 A 0.84,0.84 0 0 1 13.593,5.68 0.642,0.642 0 0 0 13.359,5.763 0.76,0.76 0 0 0 13.171,5.925 l -0.51,0.237 C 12.413,6.246 11.169,6.668 11.055,6.721 A 0.809,0.809 0 0 0 10.74,6.96 c -0.011,0.019 -0.09,0.2 -0.177,0.4 -0.076,0.173 -0.159,0.36 -0.2,0.459 a 9.824,9.824 0 0 0 -0.294,1.033 c 0,0 -0.01,0.112 -0.022,0.175 -0.036,0.023 -0.1,0.06 -0.15,0.084 a 1.689,1.689 0 0 0 -0.179,0.1 C 9.694,9.224 9.658,9.241 9.618,9.26 9.431,9.349 9.318,9.409 9.256,9.518 a 0.258,0.258 0 0 0 -0.008,0.149 0.26,0.26 0 0 0 0,0.135 0.248,0.248 0 0 0 0.038,0.084 0.248,0.248 0 0 0 0.03,0.139 c 0.007,0.011 0.013,0.021 0.02,0.03 v 0.018 l 0.005,0.041 a 0.242,0.242 0 0 0 0.245,0.184 0.617,0.617 0 0 0 0.155,-0.035 c 0.071,-0.02 0.16,-0.045 0.217,-0.055 a 0.429,0.429 0 0 0 0.059,-0.018 0.269,0.269 0 0 0 0.067,0.09 0.231,0.231 0 0 0 0.181,0.051 c 0.209,-0.032 0.216,-0.237 0.221,-0.338 0.008,-0.032 0.03,-0.091 0.049,-0.143 L 10.607,9.828 H 10.544 L 10.565,9.773 A 1.523,1.523 0 0 0 10.8,9.4 c 0,-0.015 0.015,-0.038 0.027,-0.066 a 1.394,1.394 0 0 0 0.081,-0.218 9.971,9.971 0 0 1 0.493,-1 C 11.48,7.994 11.563,7.86 11.632,7.751 11.679,7.676 11.718,7.612 11.737,7.581 11.85,7.556 12.151,7.5 12.43,7.45 12.419,7.489 12.407,7.528 12.394,7.563 A 1.809,1.809 0 0 0 12.311,8.268 2.471,2.471 0 0 1 12.282,9 a 2.269,2.269 0 0 1 -0.123,0.235 1.238,1.238 0 0 0 -0.238,0.6 0.436,0.436 0 0 0 0.059,0.173 1.553,1.553 0 0 0 -0.414,0.737 4.3,4.3 0 0 0 -0.029,0.582 1.241,1.241 0 0 1 -0.019,0.3 c -0.02,0.057 -0.169,0.315 -0.289,0.523 a 3.137,3.137 0 0 0 -0.394,0.773 0.164,0.164 0 0 0 0.05,0.119 8.665,8.665 0 0 1 -0.431,0.888 c -0.136,0.126 -0.777,0.682 -0.843,0.729 l -0.032,0.03 C 9.523,14.758 8.758,15.91 8.562,16.205 L 8.556,16.2 8.227,16.683 a 0.373,0.373 0 0 0 -0.169,0.049 c -0.076,0.052 -0.607,0.473 -0.616,0.48 a 0.208,0.208 0 0 0 -0.067,0.151 0.193,0.193 0 0 0 0.061,0.142 c 0.046,0.053 0.287,0.394 0.418,0.6 -1.977,0.311 -3.439,0.538 -3.761,0.581 L 3.884,18.651 2,20.721 H 4.953 L 5.131,20.495 A 0.848,0.848 0 0 0 5.812,20.031 L 19.334,18.25 a 1.173,1.173 0 0 0 0.2,0.171 L 19.15,19.87 18.844,20.721 H 22 v -4.916 z m -3.869,-5.118 2.168,-0.555 0.066,5.989 C 17.3,16.612 12.648,17.35 9.09,17.91 c 0,-0.118 0,-0.291 0.01,-0.357 a 0.31,0.31 0 0 0 0.026,-0.207 l 0.335,-0.5 c 1.388,-1.373 1.708,-1.7 1.788,-1.788 0.012,-0.007 0.029,-0.014 0.048,-0.023 a 1.147,1.147 0 0 0 0.287,-0.181 0.91,0.91 0 0 0 0.218,-0.31 l 0.017,-0.037 c 0.035,-0.055 0.362,-0.461 0.669,-0.836 h 0.057 l 0.044,-0.037 a 1.93,1.93 0 0 0 0.366,-0.431 8.069,8.069 0 0 0 0.413,-0.795 l 1.941,0.275 c -0.046,0.039 -0.094,0.084 -0.143,0.133 a 3.026,3.026 0 0 0 -0.405,0.605 2.407,2.407 0 0 1 -0.159,0.262 c -0.112,0.119 -0.371,0.374 -0.371,0.375 l -0.059,0.059 -0.448,0.365 a 0.179,0.179 0 0 0 -0.121,0 c -0.031,0.009 -0.087,0.026 -0.572,0.438 L 12.99,14.94 12.961,15 a 0.31,0.31 0 0 0 -0.005,0.23 1.952,1.952 0 0 0 0.42,0.523 c 0.073,0.076 0.136,0.143 0.166,0.178 0.03,0.035 0.05,0.072 0.075,0.11 a 1.724,1.724 0 0 0 0.325,0.385 9.189,9.189 0 0 0 0.786,0.524 0.235,0.235 0 0 0 0.089,0.016 0.31,0.31 0 0 0 0.262,-0.139 0.244,0.244 0 0 0 -0.053,-0.329 1.126,1.126 0 0 1 -0.288,-0.428 2.638,2.638 0 0 1 0.011,-0.478 1.162,1.162 0 0 0 0,-0.33 c -0.006,-0.031 -0.015,-0.074 -0.021,-0.074 v 0 l 0.018,-0.035 a 2.431,2.431 0 0 1 0.246,-0.273 l 0.082,-0.081 0.036,-0.027 c 0.072,-0.058 1.785,-1.4 1.993,-1.6 l 0.062,-0.057 c 0.214,-0.193 0.478,-0.434 0.456,-0.732 0,-0.459 -0.768,-0.983 -0.989,-1.091 l -0.119,-0.055 a 6.241,6.241 0 0 0 -1.04,-0.4 L 15.088,10.719 C 14.872,10.653 14.638,10.582 14.5,10.528 Z"/>

</svg>
